layouts/icon-pack/spell_silence.svg

<?xml version="1.0" encoding="UTF-8"?>
<svg width="1200pt" height="1200pt" version="1.1" viewBox="0 0 1200 1200" xmlns="http://www.w3.org/2000/svg">
 <path d="m673.57 1139.1c89.391-45.07 235.8-147.05 296.74-350.09l12.516-1.8281c22.684-3.4141 42.047-18.188 51.328-39.164 26.766-59.906 30.844-124.71 30.469-162.66-0.25-20.199-9.4766-39.242-25.172-51.961l-42.938-34.875c-9.4688-110.77-43.969-259.73-152.77-360.21-137.02-126.35-350.48-126.35-487.5 0-108.8 100.38-143.3 249.35-152.72 360.12l-42.938 34.969c-15.695 12.719-24.922 31.762-25.172 51.961-0.39844 37.945 3.6797 102.75 30.469 162.66 9.2812 20.977 28.645 35.75 51.328 39.164l12.516 1.8281c60.938 203.04 207.33 305.02 296.72 350.02 46.262 23.312 100.83 23.34 147.12 0.070312zm45.961-603.47 4.2891-41.062c1.6172-14.625 10.883-27.289 24.332-33.258 13.449-5.9688 29.055-4.3477 40.988 4.2617 11.93 8.6094 18.391 22.906 16.969 37.551l-4.2891 41.133c-1.5391 14.699-10.805 27.461-24.309 33.477-13.5 6.0156-29.184 4.3711-41.145-4.3125-11.957-8.6836-18.375-23.09-16.836-37.789zm-321.35 8.5547-4.2891-41.133c-1.2852-14.578 5.2266-28.746 17.125-37.266s27.41-10.121 40.797-4.207c13.387 5.9102 22.652 18.457 24.367 32.988l4.2891 41.062c1.4219 14.645-5.0391 28.941-16.969 37.551-11.934 8.6094-27.539 10.23-40.988 4.2617s-22.715-18.633-24.332-33.258zm75.258 427.78-10.219-11.906c-7.2344-8.4297-10.824-19.383-9.9844-30.457 0.83984-11.074 6.0391-21.363 14.461-28.605l55.922-48-65.953-58.43c-8.3125-7.3633-13.359-17.727-14.031-28.812-0.67187-11.086 3.0859-21.98 10.445-30.297l10.406-11.719c7.3594-8.3164 17.727-13.367 28.812-14.039 11.086-0.67578 21.984 3.0859 30.297 10.453l76.172 67.383 77.344-66.375c8.4219-7.2383 19.375-10.832 30.445-9.9922 11.074 0.83984 21.359 6.043 28.594 14.469l10.219 11.906c7.2383 8.4219 10.832 19.375 9.9922 30.445-0.83984 11.074-6.043 21.359-14.469 28.594l-66.891 57.539 55.266 48.961c8.3164 7.3594 13.367 17.727 14.039 28.812 0.67578 11.086-3.0859 21.984-10.453 30.297l-10.383 11.719c-7.3672 8.3125-17.734 13.359-28.824 14.031-11.09 0.67578-21.988-3.082-30.309-10.445l-65.461-57.984-66.352 56.93c-8.4297 7.2383-19.391 10.836-30.469 9.9961-11.082-0.83984-21.375-6.0469-28.617-14.473z" fill="#fff"/>
</svg>

<?xml version="1.0" encoding="UTF-8" standalone="no"?>
<!DOCTYPE svg PUBLIC "-//W3C//DTD SVG 1.1//EN" "http://www.w3.org/Graphics/SVG/1.1/DTD/svg11.dtd">
<svg width="100%" height="100%" viewBox="0 0 428 512" version="1.1" xmlns="http://www.w3.org/2000/svg" xmlns:xlink="http://www.w3.org/1999/xlink" xml:space="preserve" xmlns:serif="http://www.serif.com/" style="fill-rule:evenodd;clip-rule:evenodd;stroke-linejoin:round;stroke-miterlimit:2;">
    <g transform="matrix(1,0,0,1,-135.388,-43.5494)">
        <g transform="matrix(0.460023,0,0,0.460023,73.1063,23.5157)">
            <path d="M673.57,1139.1C762.961,1094.03 909.37,992.05 970.31,789.01L982.826,787.182C1005.51,783.768 1024.87,768.994 1034.15,748.018C1060.92,688.112 1065,623.308 1064.62,585.358C1064.37,565.159 1055.15,546.116 1039.45,533.397L996.513,498.522C987.044,387.752 952.544,238.792 843.743,138.312C706.723,11.962 493.263,11.962 356.243,138.312C247.443,238.692 212.943,387.662 203.523,498.432L160.585,533.401C144.89,546.12 135.663,565.163 135.413,585.362C135.015,623.307 139.093,688.112 165.882,748.022C175.163,768.999 194.527,783.772 217.21,787.186L229.726,789.014C290.664,992.054 437.056,1094.03 526.446,1139.03C572.708,1162.35 627.276,1162.37 673.566,1139.1L673.57,1139.1ZM719.531,535.63L723.82,494.568C725.437,479.943 734.703,467.279 748.152,461.31C761.601,455.341 777.207,456.962 789.14,465.572C801.07,474.181 807.531,488.478 806.109,503.123L801.82,544.256C800.281,558.955 791.015,571.717 777.511,577.733C764.011,583.748 748.327,582.104 736.366,573.42C724.409,564.737 717.991,550.33 719.53,535.631L719.531,535.63ZM398.181,544.185L393.892,503.052C392.607,488.474 399.119,474.306 411.017,465.786C422.915,457.266 438.427,455.665 451.814,461.579C465.201,467.489 474.466,480.036 476.181,494.567L480.47,535.629C481.892,550.274 475.431,564.57 463.501,573.18C451.567,581.789 435.962,583.41 422.513,577.441C409.064,571.473 399.798,558.808 398.181,544.183L398.181,544.185ZM473.439,971.965L463.22,960.059C455.986,951.629 452.396,940.676 453.236,929.602C454.075,918.528 459.275,908.239 467.697,900.997L523.619,852.997L457.666,794.567C449.353,787.203 444.307,776.84 443.635,765.755C442.963,754.669 446.721,743.775 454.08,735.458L464.486,723.739C471.845,715.422 482.213,710.372 493.298,709.7C504.384,709.024 515.282,712.786 523.595,720.153L599.767,787.536L677.111,721.161C685.533,713.922 696.486,710.329 707.556,711.168C718.63,712.008 728.915,717.211 736.15,725.637L746.369,737.543C753.607,745.965 757.201,756.918 756.361,767.988C755.521,779.062 750.318,789.348 741.892,796.583L675.001,854.122L730.267,903.083C738.583,910.442 743.634,920.809 744.306,931.895C744.982,942.981 741.22,953.879 733.853,962.192L723.47,973.911C716.103,982.223 705.736,987.27 694.646,987.942C683.556,988.617 672.658,984.86 664.337,977.497L598.876,919.512L532.524,976.442C524.094,983.681 513.133,987.278 502.055,986.439C490.973,985.599 480.68,980.392 473.438,971.966L473.439,971.965Z" style="fill:white;fill-rule:nonzero;"/>
        </g>
    </g>
</svg>
